Sources/FrostedUI/Resources/Icons.xcassets/rocket12.imageset/rocket-12.svg

<svg width="12" height="12" viewBox="0 0 12 12" fill="none" xmlns="http://www.w3.org/2000/svg" data-fui-icon="true">
  <path
    d="M2.83704 9.24451C3.12571 8.94771 3.60062 8.9414 3.89758 9.22986C4.19446 9.5185 4.20164 9.9934 3.91321 10.2904L3.07922 11.1478C2.79047 11.4446 2.31559 11.4511 2.01868 11.1625C1.72192 10.8737 1.71537 10.3988 2.00403 10.1019L2.83704 9.24451ZM1.72668 8.10193C2.01545 7.80529 2.49036 7.79866 2.78723 8.08728C3.0839 8.37602 3.09045 8.85093 2.80188 9.14783L1.41321 10.5765C1.12453 10.8735 0.649664 10.8798 0.352661 10.5912C0.0557183 10.3025 0.0484444 9.82764 0.337036 9.53064L1.72668 8.10193ZM10.2023 0.643921C10.8748 0.665708 11.408 1.24484 11.3536 1.93396C11.1993 3.88578 10.2414 5.39294 8.87512 6.70935V8.57849C8.87501 8.97859 8.68385 9.35088 8.36731 9.58435L8.22375 9.67517L6.47375 10.6302L6.31555 10.7035C5.51777 11.0078 4.62512 10.4221 4.62512 9.53259V8.88025L3.12024 7.37537H2.4679C1.51911 7.37537 0.916139 6.35964 1.37024 5.52673L2.32434 3.77673L2.41614 3.63318C2.6497 3.31641 3.02181 3.12537 3.422 3.12537H5.29114C6.60757 1.75905 8.11464 0.801151 10.0665 0.646851L10.2023 0.643921ZM6.12512 8.93103V9.11072L7.37512 8.42908V7.93884L6.12512 8.93103ZM9.81262 2.18591C8.43373 2.39596 7.29741 3.15211 6.17786 4.37048L4.43372 6.56677L5.43176 7.5658L7.63391 5.81677C8.84969 4.69839 9.60312 3.56348 9.81262 2.18591ZM2.88782 5.87537H3.06848L4.06165 4.62537H3.57043L2.88782 5.87537Z"
    fill="currentColor"
  />
</svg>

<svg xmlns="http://www.w3.org/2000/svg" width="12" height="12" fill="none" data-fui-icon="true" viewBox="0 0 12 12"><path fill="currentColor" d="M2.837 9.245a.75.75 0 0 1 1.076 1.045l-.834.858a.75.75 0 0 1-1.075-1.046zm-1.11-1.143a.75.75 0 0 1 1.075 1.046l-1.389 1.428A.75.75 0 0 1 .337 9.532zM10.202.644c.673.022 1.206.6 1.152 1.29-.155 1.952-1.113 3.459-2.479 4.775v1.87c0 .4-.191.772-.508 1.005l-.143.091-1.75.955-.158.073a1.25 1.25 0 0 1-1.69-1.17V8.88L3.12 7.375h-.652A1.25 1.25 0 0 1 1.37 5.527l.954-1.75.092-.144a1.25 1.25 0 0 1 1.006-.508h1.87C6.607 1.76 8.114.801 10.066.647zM6.125 8.93v.18l1.25-.682v-.49zm3.688-6.745c-1.38.21-2.516.966-3.635 2.184L4.434 6.567l.998.999 2.202-1.75c1.216-1.118 1.97-2.253 2.179-3.63m-6.925 3.69h.18l.994-1.25H3.57z"/></svg>
